X: 1
T: Miss Katy Trotter's Reel
C: Mackintosh
R: reel
Z: John Chambers <jc:trillian.mit.edu>
M: C|
L: 1/8
K: G
c | "G"BABG DGBd | "C"cBAG "D7"FA-Ac | "G"BABG "Am"cAce | "D7"fadf "G"gG G :|
g | "D"f2dg "G"BgdB | "C"ceBd "D7"Aa-ag | "D7"f/g/a d>f "G"gdBG | "C"ce"D"Ac "G"BG G ||
g | "D"f2dg "G"BgdB | "C"ceBd "D7"Aa-ag | "D7"fagb "C"afgc | "D7"BdAc "G"BG G |]
